src/16/actions/draw-cuboid.svg

<svg xmlns="http://www.w3.org/2000/svg" width="16" height="16" viewBox="0 0 16 16">
 <defs>
  <style id="current-color-scheme" type="text/css">
   .ColorScheme-Text { color:#565656; } .ColorScheme-Highlight { color:#5294e2; }
  </style>
 </defs>
 <path style="fill:currentColor" class="ColorScheme-Text" d="M 7.6035156,0 C 7.4954087,0 7.3884192,0.02464035 7.2890625,0.07421875 L 0.39257813,3.515625 C 0.1528418,3.6352265 0,3.8658019 0,4.15625 l 0,7.654297 c 0,0.266714 0.15062446,0.510636 0.38867187,0.630859 L 7.2851562,15.923828 C 7.3855575,15.974584 7.4945809,16 7.6035156,16 c 0.1716466,0 0.3477007,-0.09029 0.3476562,-0.08984 l 6.8691402,-3.46875 c 0.238092,-0.120223 0.388672,-0.364145 0.388672,-0.630859 l 0,-7.6621095 c 0,-0.2679589 -0.152708,-0.513211 -0.392578,-0.6328125 L 7.9199218,0.07421875 C 7.8205873,0.02464035 7.7116225,0 7.6035156,0 Z m 0,1.4960938 5.3144524,2.6523437 -5.3144524,2.6523437 -5.3125,-2.6523437 5.3125,-2.6523437 z m -6.1894531,3.7949218 5.4824218,2.7363282 0,6.1171872 -5.4824218,-2.769531 0,-6.0839844 z m 12.3808595,0 0,6.0839844 -5.4843751,2.769531 0,-6.1171872 5.4843751,-2.7363282 z"/>
</svg>

<svg xmlns="http://www.w3.org/2000/svg" width="16" height="16"><defs><style id="current-color-scheme" type="text/css"></style></defs><path d="M7.604 0a.702.702 0 0 0-.315.074L.393 3.516a.696.696 0 0 0-.393.64v7.655c0 .266.15.51.389.63l6.896 3.483c.1.05.21.076.319.076.171 0 .347-.09.347-.09l6.87-3.469a.707.707 0 0 0 .388-.63V4.148a.708.708 0 0 0-.393-.632L7.92.074A.71.71 0 0 0 7.604 0zm0 1.496l5.314 2.652-5.314 2.653L2.29 4.148l5.313-2.652zm-6.19 3.795l5.482 2.736v6.118l-5.482-2.77V5.291zm12.38 0v6.084l-5.483 2.77V8.027l5.484-2.736z" fill="currentColor" color="#565656"/></svg>
